icons/arrow-left-right-line.svg

<svg viewBox="0 0 24 24" xmlns="http://www.w3.org/2000/svg"><path d="M16.0503 12.0498L21 16.9996L16.0503 21.9493L14.636 20.5351L17.172 17.9988L4 17.9996V15.9996L17.172 15.9988L14.636 13.464L16.0503 12.0498ZM7.94975 2.0498L9.36396 3.46402L6.828 5.9988L20 5.99955V7.99955L6.828 7.9988L9.36396 10.5351L7.94975 11.9493L3 6.99955L7.94975 2.0498Z"/></svg>

<svg xmlns="http://www.w3.org/2000/svg" viewBox="0 0 24 24">
    <g>
        <path fill="none" d="M0 0h24v24H0z"/>
        <path d="M16.05 12.05L21 17l-4.95 4.95-1.414-1.414 2.536-2.537L4 18v-2h13.172l-2.536-2.536 1.414-1.414zm-8.1-10l1.414 1.414L6.828 6 20 6v2H6.828l2.536 2.536L7.95 11.95 3 7l4.95-4.95z"/>
    </g>
</svg>
